Origami/64x64/apps/kiriki.svg

<svg width="64" height="64" version="1" xmlns="http://www.w3.org/2000/svg">
 <path d="m4 56v2c0 1.662 1.338 3 3 3h50c1.662 0 3-1.338 3-3v-2c0 1.662-1.338 3-3 3h-50c-1.662 0-3-1.338-3-3z" style="opacity:.2"/>
 <rect transform="matrix(0,-1,-1,0,0,0)" x="-60" y="-60" width="56" height="56" rx="3" ry="3" style="fill:#c2352a"/>
 <path d="m7 4c-1.662 0-3 1.338-3 3v1c0-1.662 1.338-3 3-3h50c1.662 0 3 1.338 3 3v-1c0-1.662-1.338-3-3-3h-50z" style="fill:#ffffff;opacity:.1"/>
 <circle cx="48" cy="49" r="8" style="opacity:.2"/>
 <circle cx="32" cy="33" r="8" style="opacity:.2"/>
 <circle cx="32" cy="32" r="8" style="fill:#ff9cff"/>
 <circle cx="48" cy="48" r="8" style="fill:#ffffff"/>
 <circle cx="16" cy="17" r="8" style="opacity:.2"/>
 <circle cx="16" cy="16" r="8" style="fill:#ffffff"/>
</svg>

<svg xmlns="http://www.w3.org/2000/svg" width="64" height="64" version="1">
 <path style="opacity:0.2" d="m 4,56 0,2 c 0,1.662 1.338,3 3,3 l 50,0 c 1.662,0 3,-1.338 3,-3 l 0,-2 c 0,1.662 -1.338,3 -3,3 L 7,59 C 5.338,59 4,57.662 4,56 Z"/>
 <rect style="fill:#c2352a" width="56" height="56" x="-60" y="-60" rx="3" ry="3" transform="matrix(0,-1,-1,0,0,0)"/>
 <path style="opacity:0.1;fill:#ffffff" d="M 7 4 C 5.338 4 4 5.338 4 7 L 4 8 C 4 6.338 5.338 5 7 5 L 57 5 C 58.662 5 60 6.338 60 8 L 60 7 C 60 5.338 58.662 4 57 4 L 7 4 z"/>
 <circle style="opacity:0.2" cx="48" cy="49" r="8"/>
 <circle style="opacity:0.2" cx="32" cy="33" r="8"/>
 <circle style="fill:#ff9cff" cx="32" cy="32" r="8"/>
 <circle style="fill:#ffffff" cx="48" cy="48" r="8"/>
 <circle style="opacity:0.2" cx="16" cy="17" r="8"/>
 <circle style="fill:#ffffff" cx="16" cy="16" r="8"/>
</svg>
